public/icons/theme_black.svg

<svg data-name="Layer 1" xmlns="http://www.w3.org/2000/svg" viewBox="0 0 24 24"><path fill="none" d="M0 0h24v24H0z"/><path d="M20 7V3a1 1 0 00-1-1H7a1 1 0 00-1 1v1H4a2 2 0 00-2 2v4a2 2 0 002 2h8v3h-1a1 1 0 00-1 1v6a1 1 0 001 1h4a1 1 0 001-1v-6a1 1 0 00-1-1h-1v-3a2 2 0 00-2-2H4V6h2v1a1 1 0 001 1h12a1 1 0 001-1zM8 4h10v2H8zm6 17h-2v-4h2z"/><path stroke="#febb2a" stroke-linecap="round" stroke-linejoin="round" stroke-width="2.3" fill="none" d="M7.15 2.9h11.71v4.21H7.15z"/></svg>

<svg id="Layer_1" data-name="Layer 1" xmlns="http://www.w3.org/2000/svg" viewBox="0 0 24 24"><defs><style>.cls-1,.cls-2{fill:none;}.cls-2{stroke:#febb2a;stroke-linecap:round;stroke-linejoin:round;stroke-width:2.3px;}</style></defs><rect class="cls-1" width="24" height="24"/><path d="M20,7V3a1,1,0,0,0-1-1H7A1,1,0,0,0,6,3V4H4A2,2,0,0,0,2,6v4a2,2,0,0,0,2,2h8v3H11a1,1,0,0,0-1,1v6a1,1,0,0,0,1,1h4a1,1,0,0,0,1-1V16a1,1,0,0,0-1-1H14V12a2,2,0,0,0-2-2H4V6H6V7A1,1,0,0,0,7,8H19A1,1,0,0,0,20,7ZM8,4H18V6H8Zm6,17H12V17h2Z"/><rect class="cls-2" x="7.15" y="2.9" width="11.71" height="4.21"/></svg>
